src/pages/User/Import/asset/success.svg

<svg fill="none" height="20" viewBox="0 0 20 20" width="20" xmlns="http://www.w3.org/2000/svg"><path d="m9.99997 2c-4.41828 0-7.99997 3.58171-7.99997 7.99997 0 4.41833 3.58167 8.00003 7.99996 8.00003 4.41834 0 8.00004-3.5817 8.00004-8.00001 0-4.41825-3.5816-7.99999-8.00003-7.99999z" fill="#4ac285"/><path d="m6.43148 9.59461 2.07877 1.81709 5.17495-5.23143s.3476-.34822.6505-.07672c.0906.08238.1945.31358-.0403.6763l-5.40334 6.94565s-.41469.6223-.90681-.007l-2.33048-3.455s-.27717-.46738.06929-.74808c.11667-.09404.38182-.24039.70742.07919h.00035z" fill="#fff"/></svg>

<svg width="20" height="20" viewBox="0 0 20 20" fill="none" xmlns="http://www.w3.org/2000/svg">
    <path d="M9.99997 2C5.58169 2 2 5.58171 2 9.99997C2 14.4183 5.58167 18 9.99996 18C14.4183 18 18 14.4183 18 9.99999C18 5.58174 14.4184 2 9.99997 2Z"
          fill="#4AC285"/>
    <path d="M6.43148 9.59461L8.51025 11.4117L13.6852 6.18027C13.6852 6.18027 14.0328 5.83205 14.3357 6.10355C14.4263 6.18593 14.5302 6.41713 14.2954 6.77985L8.89206 13.7255C8.89206 13.7255 8.47737 14.3478 7.98525 13.7185L5.65477 10.2635C5.65477 10.2635 5.3776 9.79612 5.72406 9.51542C5.84073 9.42138 6.10588 9.27503 6.43148 9.59461H6.43183H6.43148Z"
          fill="white"/>
</svg>
